!!!!SEGMENT: 024-1d-W-001.krn
!!!COM: Chopin, Fryderyk
!!!OTL: Mazurka N°. 1.
!!!OPS: Op. 24
!!!PTL: Souvenir de la Pologne, 4th Set of Mazurkas
!!!PPR: Wessel
!!!PPP: London
!!!AGN: Mazurka
!!!NIFC-rismID: 1001015155
!!!NIFC-shelfmark: PL-Wbfc 4976/n
!!!OMD: LENTO. ([quarter]=108.) 
**kern	**kern	**dynam
*part1	*part1	*part1
*staff2	*staff1	*
*clefF4	*clefG2	*
*>[I,A,A1,A,A2,B]	*>[I,A,A1,A,A2,B]	*
*k[b-e-]	*k[b-e-]	*
*g:	*g:	*
*M3/4	*M3/4	*
*MM108	*MM108	*
*>I	*	*
4r	[4a^	.
=1!|:	=1!|:	=1!|:
*>A	*	*
!	!LO:TX:b:i:t=Rubato.	!
*ped	*	*
4DD	8aL]	.
.	16r	.
.	(16f#Jk	.
4c 4A 4D	4d'	.
*Xped	*	*
4d 4c 4A 4D	4f#'	.
=2	=2	=2
*ped	*	*
4GG	2g^>	<
4d 4B- 4G	.	.
*Xped	*	*
4d 4B- 4G	8aL	.
.	8b-J	.
*clefG2	*	*
=3	=3	=3
4r	8ccL	.
.	16r	.
.	16ddJk	.
(4g 4e- 4c 4G	4ee-)	[>
4a 4e- 4c 4G)	4ff#	]
=4	=4	=4
*	*^	*
4r	(<8gg	(2.b-	.
.	4.dd)	.	.
*clefF4	*	*	*
(4d' 4G	.	.	.
4d' 4G)	4r	.	.
*	*v	*v	*
=5	=5	=5
*ped	*	*
4DD	8aL)	.
.	16r	.
.	(16f#Jk	.
4c 4A 4D	4d	.
*Xped	*	*
4d 4c 4A 4D	4f#	.
!!LO:LB:g=original
=6	=6	=6
*ped	*	*
4GG	2g^>)	.
4d 4B- 4G	.	.
*Xped	*	*
4d 4B- 4G	(>8.ddL	.
.	16cc#Jk	.
=7	=7	=7
4r	8b-L	.
.	16r	.
.	16aJk	.
(4en 4B- 4G 4D	4g'	.
4c# 4A 4D)	4f#'	.
=8	=8	=8
.	16qqf#/	.
4r	2d^)	.
(4A 4D	.	.
4A^< 4D)	([4a^	.
=9	=9	=9
*	*^	*
*ped	*	*	*
4DD	8aL]	2ryy	.
.	8f#J	.	.
4c 4A 4D	4d)	.	.
*Xped	*	*	*
4d 4c 4A 4D	(8.b-L	4f#X	.
.	16aJk	.	.
*	*v	*v	*
=10	=10	=10
*ped	*	*
4GG	2g^	.
4d 4B- 4G	.	.
*Xped	*	*
4d 4B- 4G	8aL	.
.	8b-J	.
=11	=11	=11
4r	8ccL	.
.	16r	.
.	16ddJk	.
*clefG2	*	*
4g 4e- 4c 4G	4ee-)	.
4an 4e- 4c 4G	(4ff#^<	.
=12	=12	=12
*	*^	*
4r	8gg	(2.b-	.
.	4.dd)	.	.
*clefF4	*	*	*
(4d' 4G	.	.	.
4d' 4G)	4r	.	.
*	*v	*v	*
!!LO:LB:g=original
=13	=13	=13
*ped	*	*
4DD	8aL)	.
.	16r	.
.	(16f#Jk	.
4c 4A 4D	4d	.
*Xped	*	*
4d 4c 4A 4D	4f#	.
=14	=14	=14
*ped	*	*
4GG	2g^>)	.
4d 4B- 4G	.	.
*Xped	*	*
4d 4B- 4G	(8.ddL	.
.	16cc#Jk	.
=15	=15	=15
4r	8b-L)	.
.	(<8aJ	.
(4en 4B- 4G 4D	4g'	.
4c# 4A 4D)	4f#'	.
=16	=16	=16
.	16qqf#/	.
4r	(2.d^>)	.
(4A' 4D	.	.
4A' 4D)	.	.
=17	=17	=17
!	!LO:TX:a:i:t=Dolce.	!
*ped	*	*
4FF	4fn')	fz
(4e- 4B- 4F	(12gL	.
.	12a^>	.
.	12gJ	.
*Xped	*	*
4e- 4A 4F	4f')	.
=18	=18	=18
4e- 4B- 4F	(12gL	.
.	12a	.
.	12gJ	.
4e- 4A 4F)	4f')	.
4r	(4gg^<	.
=19	=19	=19
*ped	*	*
4FF	12ffL	.
.	12gg	.
.	12ffJ	.
*clefG2	*	*
4a 4e- 4c	4.een^<	.
*Xped	*	*
4a 4e- 4c	.	.
.	8ee-)	.
*clefF4	*	*
!!LO:LB:g=original
=20	=20	=20
*ped	*	*
4BB-	((12ee-L	.
.	12ff	.
.	12ee-J)	.
*clefG2	*	*
4b-: 4d: 4B-: 4F:	2dd^<	.
*Xped	*	*
4r	.	.
*clefF4	*	*
=21	=21	=21
*ped	*	*
4FF'	4f')	.
(4e- 4B- 4F	(12gL	.
.	12a^>	.
.	12gJ)	.
*Xped	*	*
4e- 4A 4F	4f'	.
=22	=22	=22
4e- 4B- 4F	(12gL	.
.	12a^>	.
.	12gJ)	.
4e- 4A 4F)	4f'	.
!	!	!LO:HP:b=2
(4g 4A 4F	(4ee-^<	>
=23	=23	=23
4f 4A 4F	(12ddL	.
.	12ee-	.
.	12ddJ)	.
4en 4A 4F	4.cc#^<	.
4e- 4A 4F)	.	]
.	8ccn)	.
=24	=24	=24
*ped	*	*
4BB-'	(12ccL	.
.	12dd	.
.	12ccJ)	.
4d 4B- 4F	(4b-	.
*Xped	*	*
4d 4B- 4F	8a^L	.
.	8gJ	.
=25	=25	=25
*ped	*	*
4FF	4f')	fz
(4e- 4B- 4F	(12g^>L	.
.	12a^>	.
.	12gJ	.
*Xped	*	*
4e- 4A 4F	4f')	.
=26	=26	=26
4e- 4B- 4F	(12g^>L	.
.	12a^>	.
.	12gJ	.
4e- 4A 4F	4f')	.
4e- 4A 4F)	(4gg^<	.
!!LO:LB:g=original
=27	=27	=27
*ped	*	*
4FF	12ffL	.
.	12gg	.
.	12ffJ	.
*clefG2	*	*
4a 4e- 4c	4.een^<	.
*Xped	*	*
4a 4e- 4c	.	.
.	8ee-)	.
*clefF4	*	*
=28	=28	=28
4BB-'	(12ee-L	.
.	12ff	.
.	12ee-J	.
*clefG2	*	*
*ped	*	*
4b-: 4f: 4d: 4B-: 4F:	2dd^<	.
*Xped	*	*
4r	.	.
*clefF4	*	*
=29	=29	=29
*ped	*	*
(>4FF	4f')	fz
4e- 4B- 4F	(12gL	.
.	12a	.
.	12gJ	.
*Xped	*	*
4e- 4A 4F	4f')	.
=30	=30	=30
4e- 4B- 4F	(12gL	.
.	12a^>	.
.	12gJ	.
4e- 4A 4F	4f')	.
!	!	!LO:HP:b=2
4g 4A 4F	(4ee-^<	>
=31	=31	=31
4f 4A 4F	(12ddL	.
.	12ee-	.
.	12ddJ)	.
4en 4A 4F	4.cc#^<	.
.	.	]
4e- 4A 4F)	.	.
.	8ccn)	.
=32	=32	=32
*>A1	*	*
*ped	*	*
(4BB-	(12ccL	.
.	12dd	.
!!LO:TX:a:B:t=1°.
.	12ccJ)	.
4d 4F#	(4.bn^<	.
*Xped	*	*
4d 4G)	.	.
.	8b-)	.
!!LO:PB:g=original
=33:|!	=33:|!	=33:|!
*>A2	*	*
*ped	*	*
!!LO:TX:a:B:t=2°.
4BB-'	(12ccL	.
.	12ddn	.
.	12ccJ	.
4d 4F	4.b-)	.
*Xped	*	*
4d 4F	.	.
.	(>8bn	.
=34	=34	=34
*>B	*	*
!	!LO:TX:a:i:t=Con Anima.	!
*ped	*	*
4BBB-'	8cc^L 8a-	.
.	16r	.
.	(16b-Jk 16g)	.
4d 4B- 4F	4.a- 4.f)	.
*Xped	*	*
4d 4B- 4F	.	.
.	(8cc/ 8a-/	.
=35	=35	=35
*ped	*	*
4EE-'	8cc^>L 8a-)	.
.	16r	.
.	(16b-Jk 16g	.
4B- 4G	4.g 4.e-)	.
*Xped	*	*
4e- 4B- 4G	.	.
.	(8cc/ 8a-/	.
=36	=36	=36
*ped	*	*
4BB-'	8cc^>L 8a-)	.
.	16r	.
.	(16b-Jk 16g	.
4d 4B- 4F	4.a- 4.f)	.
*Xped	*	*
4d 4B- 4F	.	.
.	8cc/ 8a-/	.
=37	=37	=37
*ped	*	*
4EE-'	(8cc^L 8a-	.
.	16r	.
.	16b-Jk 16g	.
4e- 4B- 4E-	4ee-' 4g')	.
*Xped	*	*
4e- 4Bn 4E-	(>4gg^< 4g	.
=38	=38	=38
*	*^	*
4e- 4c 4E-	8.ffL	4a-	<
.	16ee-Jk	.	.
4e- 4c 4E-	4cc	4a-	.
4e- 4B- 4E-	4ee-	4g	[
!!LO:LB:g=original
=39	=39	=39	=39
8e- 8c 8E-	8ff'L)	8a-	.
8r	16r	8r	.
.	(16ee-Jk	.	.
4e- 4c 4E-	4cc	4a-	<
4e- 4B- 4E-	4ee-	4g	[
=40	=40	=40	=40
4d 4B- 4E-	8ccL	8a-L	>
.	16r	16r	.
.	16b-Jk	16gJ	]
4d 4B- 4E-	4.a- 4.f	2ryy	.
4d 4B- 4E-	.	.	.
.	8cc/ 8a-/	.	.
*	*v	*v	*
=41	=41	=41
*ped	*	*
4EE-'	8cc/L 8a-/	.
.	16r	.
.	16b-Jk 16g	.
4B- 4G	2g 2e-)	.
*Xped	*	*
4B- 4G	.	.
=42	=42	=42
.	(16qqd/	.
*ped	*	*
4BB-'	8cc^>L 8a-)	.
.	16r	.
.	(16b-Jk 16g	.
4d 4B- 4F	4.a- 4.f)	.
*Xped	*	*
4d 4B- 4F	.	.
.	8cc/ 8a-/	.
=43	=43	=43
*ped	*	*
4EE-'	8ccL 8a-	.
.	16r	.
.	(16b-Jk 16g	.
4B- 4G	4.g^> 4.e-)	.
*Xped	*	*
4e- 4B- 4G	.	.
.	(8b- 8g	.
=44	=44	=44
.	16qqb- 16qqg/LL	.
.	16qqdd/JJ	.
*ped	*	*
4BB-'	8cc^>L 8a-)	.
.	16r	.
.	(16b-Jk 16g	.
4d 4B- 4F	4.a- 4.f)	.
*Xped	*	*
4d 4B- 4F	.	.
.	(8cc/ 8a-/	.
!!LO:LB:g=original
=45	=45	=45
*ped	*	*
4EE-	(8cc^L 8a-)	.
!	!LO:TX:b:i:t=Cres.	!
.	16r	.
.	16b-Jk 16g	.
*Xped	*	*
4e- 4B- 4E-	4ee-' 4g')	.
4e- 4Bn 4E-	4gg^< 4g	.
=46	=46	=46
*	*^	*
4e- 4c 4E-	(8.ffL	4a-	<
.	16ee-Jk	.	.
4e- 4c 4E-	4cc	4a-	.
4e- 4B- 4E-	4ee-	4g	[
=47	=47	=47	=47
8e- 8c 8E-	8ff'L)	8a-	p <
8r	16rff	8r	.
.	(16ee-Jk	.	.
4e- 4c 4E-	4cc	4a-	.
4e- 4B- 4E-	4ee-)	4g	[
*	*v	*v	*
=48	=48	=48
4d 4B- 4E-	(<8ccL 8.a-	>
.	16r	.
.	16b-Jk 16g	.
4d 4B- 4E-	4.a- 4.f)	]
4d 4B- 4E-	.	.
!	!LO:TX:a:i:t=Ritenuto.	!
.	8cc/ 8a-/	.
=49	=49	=49
*	*^	*
*ped	*	*	*
4EE-	8.ccL 8g	4d-^	.
.	16b-Jk	.	.
!LO:TX:a:i:t=Dim.	!	!	!
4B- 4E-	(2g^	4d-	.
*Xped	*	*	*
4A 4E-	.	4c#	.
=50	=50	=50	=50
!	!LO:TX:a:i:t=A tempo.	!	!
*ped	*	*	*
4DD	8aL)	(4cn	.
.	16r	.	.
.	16f#Jk	.	.
4A 4D	4d	4c	.
*Xped	*	*	*
4A 4D	4f#	4c	.
=51	=51	=51	=51
*ped	*	*	*
4GG	(2g^	4B-)	.
.	.	.	<
4d 4B- 4G	.	2ryy	.
*Xped	*	*	*
4d 4B- 4G	8aL	.	.
.	8b-J	.	.
*	*v	*v	*
*clefG2	*	*
!!LO:LB:g=original
=52	=52	=52
4r	8ccL	.
.	16r	.
.	16ddJk	.
(4g 4e- 4c 4G	4ee-)	[
4an 4e- 4c 4G)	(>4ff#^<	.
*clefF4	*	*
=53	=53	=53
*	*^	*
4r	(<8gg	2.b-	.
.	(<4.dd))	.	.
(4d' 4G	.	.	.
4d' 4G)	4r	.	.
*	*v	*v	*
=54	=54	=54
*ped	*	*
4DD	8a'L)	.
.	16r	.
.	(16f#/Jk	.
4c 4A 4D	4d	.
*Xped	*	*
.	.	.
4d 4c 4A 4D	4f#	.
=55	=55	=55
*ped	*	*
4GG'	2g^)	.
4d 4B- 4G	.	.
*Xped	*	*
4d 4B- 4G	(8.ddL	>
.	16cc#Jk	.
=56	=56	=56
4r	8b-'L	.
.	8aJ	]
(4en 4B- 4G 4D	4g'	.
4c# 4A 4D)	4f#'^	.
=57	=57	=57
.	16qqf#/	.
4r	2d^)	.
(4A' 4D	.	.
4A' 4D)	[4a^	.
=58	=58	=58
*	*^	*
!	!LO:TX:a:t=sempre piu p...:dur=30e:ext=ut:problem:text with extention lines	!	!
*ped	*	*	*
4DD	8aL]	4.ryy	.
.	16r	.	.
.	(16f#k	.	.
4A 4D	8c#	.	.
.	8d	4.d	.
*Xped	*	*	*
4cn 4A 4D	8.b- 8.f#	.	.
.	16aJ	.	.
*	*v	*v	*
!!LO:LB:g=original
=59	=59	=59
*ped	*	*
4GG'	2g^)	.
4d 4B- 4G	.	.
*Xped	*	*
4d 4B- 4G	(8a/L	<
.	8b-J	[
*clefG2	*	*
=60	=60	=60
4r	8ccL	<
.	16r	.
.	16ddJ	.
4g 4e- 4c 4G	4ee-)	[
4an 4e- 4c 4G	4ff#^<	.
*clefF4	*	*
=61	=61	=61
*	*^	*
4r	8gg	(2.b-	.
.	4.dd	.	.
4d 4G	.	.	.
4d 4G	4r	.	.
*	*v	*v	*
=62	=62	=62
*ped	*	*
4DD'	8a'L)	.
.	16r	.
.	(16f#Jk	.
4c 4A 4D	4d)	.
*Xped	*	*
4c 4A 4D	(4f#	.
=63	=63	=63
!	!LO:TX:a:i:t=ritenuto.	!
*ped	*	*
4GG'	4.g^>)	.
4B- 4D	.	.
.	(8ddL	.
*Xped	*	*
.	.	.
.	16qqdd/LL	.
.	16qqff/JJ	.
4r	8ee-^<)	.
.	16r	.
.	(16ddJk	.
=64	=64	=64
*ped	*	*
4DD'	8cc#L	.
.	8ddJ	.
4cn 4F# 4D	4a	.
*Xped	*	*
4c 4F# 4D	8b-^L	.
.	8aJ	.
=65	=65	=65
*ped	*	*
4B-: 4D: 4GG:	4g'	pp
!LO:TX:a:B:t=FINE.	!	!
4GGG	4gg)	.
*Xped	*	*
4r	4r	.
==	==	==
*-	*-	*-
!!title: @{OTL}; @{OPS} @{ONM} publisher: @{PPR}
!!!RDF**kern: > = above
!!!RDF**kern: < = below
!!!ENC: Jacek Iwaszko
!!!END: 2018-01-09
!!!EED: Jędrzej Mróz
!!!EST: revision finished 2018-11-17 
!!!EED2: Marta Lawrence
!!!EST2: revision finished 2018-11-20
!!!rism-genre: Mazurka
!!!rism-key: G minor
!!!rism-opus: op.  24, no. 1
!!!rism-title: Mazurka in G minor op.  24, no. 1
!!!rism-permalink: https://opac.rism.info/search?id=1001015155&View=rism
!!!rism-773a-OPR: 1001015153
!!!rism-parent-permalink: https://opac.rism.info/search?id=1001015153&View=rism
